X: 59
T: SHULE AROON
B: O'Neill's 59
M: C
L: 1/8
Z: Transcribed by John Chambers <jc@trillian.mit.edu>
N: "Plaintively"
N: "Collected by F.O'Neill"
N: 1st Setting.
K:Dm
(fe) \
| d2(dc) (AB)(GA) | c2(dc) A2(FG) | A2A2 f2(ec) | dcA^F G2(AG) |
| =F2(EF) D2 ((3A=B^c) | d>cAG A2 Ha>g | f2ed (^cd)(ec) | d4 d2z2 ||
|| f4 e2 | d2(dc) A2(AB) | c2d2 f2e2 | dc A^F G2AG |
| F2(EF) D2((3A=B^c) | d>c AG A2 Ha>g | f2ed ^cdec | d4 d2 ||


